exported-svg/share-2.svg

<svg height="24" viewBox="0 0 24 24" width="24" xmlns="http://www.w3.org/2000/svg"><path d="m9.24080005 10.323083 6.01399755-3.50963492c-.1643098-.40557091-.2547976-.84894221-.2547976-1.31344808 0-1.93299662 1.5670034-3.5 3.5-3.5s3.5 1.56700338 3.5 3.5-1.5670034 3.5-3.5 3.5c-1.1101585 0-2.0995966-.51686572-2.7408001-1.32308304l-6.01399754 3.50963494c.16430981.4055709.25479764.8489422.25479764 1.3134481 0 .4643994-.09044636.907674-.25468471 1.3131693l6.01686741 3.5061687c.6412868-.8040726 1.6293787-1.319338 2.7378173-1.319338 1.9329966 0 3.5 1.5670034 3.5 3.5s-1.5670034 3.5-3.5 3.5-3.5-1.5670034-3.5-3.5c0-.4661991.0911487-.9111094.2565975-1.3178819l-6.01561048-3.5054362c-.64119809.8063519-1.63072059 1.3233181-2.74098702 1.3233181-1.93299662 0-3.5-1.5670034-3.5-3.5s1.56700338-3.5 3.5-3.5c1.11015852 0 2.09959658.51686572 2.74080005 1.323083zm-.5582898.9567159c-.00859387-.0121134-.01672468-.0247117-.02435376-.0377847-.00756696-.0129664-.01448456-.026133-.0207627-.0394618-.43860671-.721008-1.23176489-1.2025524-2.13739379-1.2025524-1.38071187 0-2.5 1.1192881-2.5 2.5s1.11928813 2.5 2.5 2.5c.90563013 0 1.69878924-.4815457 2.13739558-1.2025553.00623319-.0132333.01309672-.0263068.02060031-.0391836.00767587-.0131724.01586105-.0258635.02451605-.0380631.20220672-.3609033.31748806-.7770879.31748806-1.220198 0-.4431113-.11528198-.8592971-.31748975-1.2202011zm7.68009595-4.48235129c.4386067.72100801 1.2317649 1.20255239 2.1373938 1.20255239 1.3807119 0 2.5-1.11928813 2.5-2.5s-1.1192881-2.5-2.5-2.5-2.5 1.11928813-2.5 2.5c0 .4431113.115282.85929705.3174897 1.22020106.0085939.01211345.0167247.02471174.0243538.03778469.007567.0129665.0144846.02613302.0207627.03946186zm-.0676414 11.52345499c-.1882216.351258-.2949648.7527121-.2949648 1.1790974 0 1.3807119 1.1192881 2.5 2.5 2.5s2.5-1.1192881 2.5-2.5-1.1192881-2.5-2.5-2.5c-.8858362 0-1.6640641.4607259-2.1081308 1.1556247-.0103482.0293783-.0236036.0582082-.0398651.0861142-.0167299.0287099-.0358793.0551337-.0570393.0791637z"/></svg>

<?xml version="1.0" encoding="UTF-8"?>
<svg width="24px" height="24px" viewBox="0 0 24 24" version="1.1" xmlns="http://www.w3.org/2000/svg" xmlns:xlink="http://www.w3.org/1999/xlink">
    <!-- Generator: Sketch 55.2 (78181) - https://sketchapp.com -->
    <title>share-2</title>
    <desc>Created with Sketch.</desc>
    <g id="share-2" stroke="none" stroke-width="1" fill="none" fill-rule="evenodd">
        <path d="M9.24080005,10.323083 L15.2547976,6.81344808 C15.0904878,6.40787717 15,5.96450587 15,5.5 C15,3.56700338 16.5670034,2 18.5,2 C20.4329966,2 22,3.56700338 22,5.5 C22,7.43299662 20.4329966,9 18.5,9 C17.3898415,9 16.4004034,8.48313428 15.7591999,7.67691696 L9.74520236,11.1865519 C9.90951217,11.5921228 10,12.0354941 10,12.5 C10,12.9643994 9.90955364,13.407674 9.74531529,13.8131693 L15.7621827,17.319338 C16.4034695,16.5152654 17.3915614,16 18.5,16 C20.4329966,16 22,17.5670034 22,19.5 C22,21.4329966 20.4329966,23 18.5,23 C16.5670034,23 15,21.4329966 15,19.5 C15,19.0338009 15.0911487,18.5888906 15.2565975,18.1821181 L9.24098702,14.6766819 C8.59978893,15.4830338 7.61026643,16 6.5,16 C4.56700338,16 3,14.4329966 3,12.5 C3,10.5670034 4.56700338,9 6.5,9 C7.61015852,9 8.59959658,9.51686572 9.24080005,10.323083 Z M8.68251025,11.2797989 C8.67391638,11.2676855 8.66578557,11.2550872 8.65815649,11.2420142 C8.65058953,11.2290478 8.64367193,11.2158812 8.63739379,11.2025524 C8.19878708,10.4815444 7.4056289,10 6.5,10 C5.11928813,10 4,11.1192881 4,12.5 C4,13.8807119 5.11928813,15 6.5,15 C7.40563013,15 8.19878924,14.5184543 8.63739558,13.7974447 C8.64362877,13.7842114 8.6504923,13.7711379 8.65799589,13.7582611 C8.66567176,13.7450887 8.67385694,13.7323976 8.68251194,13.720198 C8.88471866,13.3592947 9,12.9431101 9,12.5 C9,12.0568887 8.88471802,11.6407029 8.68251025,11.2797989 Z M16.3626062,6.79744761 C16.8012129,7.51845562 17.5943711,8 18.5,8 C19.8807119,8 21,6.88071187 21,5.5 C21,4.11928813 19.8807119,3 18.5,3 C17.1192881,3 16,4.11928813 16,5.5 C16,5.9431113 16.115282,6.35929705 16.3174897,6.72020106 C16.3260836,6.73231451 16.3342144,6.7449128 16.3418435,6.75798575 C16.3494105,6.77095225 16.3563281,6.78411877 16.3626062,6.79744761 Z M16.2949648,18.3209026 C16.1067432,18.6721606 16,19.0736147 16,19.5 C16,20.8807119 17.1192881,22 18.5,22 C19.8807119,22 21,20.8807119 21,19.5 C21,18.1192881 19.8807119,17 18.5,17 C17.6141638,17 16.8359359,17.4607259 16.3918692,18.1556247 C16.381521,18.185003 16.3682656,18.2138329 16.3520041,18.2417389 C16.3352742,18.2704488 16.3161248,18.2968726 16.2949648,18.3209026 Z" id="Combined-Shape" fill="#000000" fill-rule="nonzero"></path>
    </g>
</svg>
